_site/_assets/img/icons/s-instagram.svg

<svg width="48" height="48" viewBox="0 0 48 48" fill="none" xmlns="http://www.w3.org/2000/svg">
<path fill-rule="evenodd" clip-rule="evenodd" d="M24 46C36.1503 46 46 36.1503 46 24C46 11.8497 36.1503 2 24 2C11.8497 2 2 11.8497 2 24C2 36.1503 11.8497 46 24 46ZM19.4476 11H29.5524C33.659 11 37 14.341 37 18.4476V28.5524C37 32.659 33.659 36 29.5524 36H19.4476C15.341 36 12 32.659 12 28.5524V18.4476C12 14.341 15.341 11 19.4476 11ZM29.5524 33.485C32.2766 33.485 34.485 31.2766 34.485 28.5524V18.4476C34.485 15.7234 32.2766 13.515 29.5524 13.515H19.4476C16.7234 13.515 14.515 15.7234 14.515 18.4476V28.5524C14.515 31.2766 16.7234 33.485 19.4476 33.485H29.5524ZM24.5004 17.0346C20.9351 17.0346 18.0346 19.9351 18.0346 23.5004C18.0346 27.0656 20.9351 29.9663 24.5004 29.9663C28.0657 29.9663 30.9663 27.0657 30.9663 23.5004C30.9663 19.9351 28.0657 17.0346 24.5004 17.0346ZM24.5004 27.4513C22.3184 27.4513 20.5496 25.6825 20.5496 23.5004C20.5496 21.3184 22.3185 19.5496 24.5004 19.5496C26.6825 19.5496 28.4513 21.3184 28.4513 23.5004C28.4513 25.6824 26.6824 27.4513 24.5004 27.4513ZM32.5277 17.083C32.5277 17.9387 31.834 18.6324 30.9783 18.6324C30.1226 18.6324 29.4289 17.9387 29.4289 17.083C29.4289 16.2274 30.1226 15.5337 30.9783 15.5337C31.834 15.5337 32.5277 16.2274 32.5277 17.083Z" fill="white"/>
</svg>

<svg width="48" height="48" fill="none" xmlns="http://www.w3.org/2000/svg"><path fill-rule="evenodd" clip-rule="evenodd" d="M24 46c12.15 0 22-9.85 22-22S36.15 2 24 2 2 11.85 2 24s9.85 22 22 22zm-4.552-35h10.104C33.66 11 37 14.341 37 18.448v10.104C37 32.66 33.659 36 29.552 36H19.448C15.34 36 12 32.659 12 28.552V18.448C12 14.34 15.341 11 19.448 11zm10.104 22.485a4.933 4.933 0 004.933-4.933V18.448a4.933 4.933 0 00-4.933-4.933H19.448a4.933 4.933 0 00-4.933 4.933v10.104a4.933 4.933 0 004.933 4.933h10.104zM24.5 17.035a6.473 6.473 0 00-6.465 6.465c0 3.566 2.9 6.466 6.465 6.466 3.566 0 6.466-2.9 6.466-6.466 0-3.565-2.9-6.465-6.466-6.465zm0 10.416a3.95 3.95 0 110-7.901 3.95 3.95 0 010 7.901zm8.028-10.368a1.55 1.55 0 11-3.1 0 1.55 1.55 0 013.1 0z" fill="#fff"/></svg>
